build/assets/images/svg/icons/error.svg

<svg width="24" height="24" viewBox="0 0 24 24" fill="none" xmlns="http://www.w3.org/2000/svg">
<path d="M10.5858 9.17231C10.1952 8.78178 9.56206 8.78178 9.17154 9.17231C8.78101 9.56283 8.78101 10.196 9.17154 10.5865L10.5858 12.0007L9.17154 13.4149C8.78101 13.8055 8.78101 14.4386 9.17154 14.8292C9.56206 15.2197 10.1952 15.2197 10.5858 14.8292L12 13.4149L13.4142 14.8292C13.8047 15.2197 14.4379 15.2197 14.8284 14.8292C15.2189 14.4386 15.2189 13.8055 14.8284 13.4149L13.4142 12.0007L14.8284 10.5865C15.2189 10.196 15.2189 9.56283 14.8284 9.17231C14.4379 8.78178 13.8047 8.78178 13.4142 9.17231L12 10.5865L10.5858 9.17231Z" fill="#F10B34"/>
<path fill-rule="evenodd" clip-rule="evenodd" d="M12 2.00073C6.47715 2.00073 2 6.47789 2 12.0007C2 17.5236 6.47715 22.0007 12 22.0007C17.5228 22.0007 22 17.5236 22 12.0007C22 6.47789 17.5228 2.00073 12 2.00073ZM4 12.0007C4 7.58245 7.58172 4.00073 12 4.00073C16.4183 4.00073 20 7.58245 20 12.0007C20 16.419 16.4183 20.0007 12 20.0007C7.58172 20.0007 4 16.419 4 12.0007Z" fill="#F10B34"/>
</svg>

<svg width="24" height="24" fill="none" xmlns="http://www.w3.org/2000/svg"><path d="M10.586 9.172a1 1 0 00-1.414 1.414l1.414 1.415-1.414 1.414a1 1 0 001.414 1.414L12 13.415l1.414 1.414a1 1 0 001.414-1.414L13.414 12l1.414-1.415a1 1 0 00-1.414-1.414L12 10.586l-1.414-1.414z" fill="#F10B34"/><path fill-rule="evenodd" clip-rule="evenodd" d="M12 2C6.477 2 2 6.479 2 12c0 5.524 4.477 10 10 10s10-4.476 10-10c0-5.522-4.477-10-10-10zM4 12a8 8 0 1116 0 8 8 0 01-16 0z" fill="#F10B34"/></svg>
